X:1
T:Title
L:1/8
Q:1/4=100
M:9/8
K:G
V:1 treble nm="Church Organ, Staff"
V:1
 D G2 A B2 BcB | A d2- d B2 B e2 | d c2- c c2 ccB | A B2- B3- B/ z/ B2 | B A2 F A2- A/ z/ A2- | %5
w: By~John~Francis~Barnett * * * * * *|||||
 A D2- D/ z/ z z d e2 | d c2- c c2 ABA | G B2- B A2 A B2 | c d2 B e2 c B2 | A G2- G F2 F B2 | %10
w: |||||
 B B2- B G2- G/ z/ e2- | e d2- d d2 B A2 | G G2- G3- G/ z/ z z |] %13
w: |||

